X:020
T:Carrigmore Road* (j)
B:NFID.232a  ("untitled jig")
020carrig
S:JMcK
L:1/8
M:6/8
R:jig
Q:320
K:D
FE|DB,A, DFA|dcd ecA|B/c/dB AFD|EDE FDB,|
"5"A3 DFA|dcd ecA|B/c/dB AFA|1 Bdd d:|2 Bdd d2||
%
B|"9"AFA dfa|b/a/fb afd|g3 fdf|ede fdB|
"13"AFA dfa|b/a/fb afd|B/c/dB AFA|1 Bdd d2:|2 Bdd dfe||
%
"17"dAF AFE|DFE DFA|dcd ede|fdB BAB/c/|
"21"dAF AFE|DFE DFA|d2f ede|1 fdd d2A:|2 fdd d2||
$
B|"25"AFA dcd|BAB dAF|DEF EDE|FDB, B,A,B,|
"29"AFA dcd|BAB dAF|DEF EDE|1 FDD D2:|2 FDD D3|]

%%%

